X: 7354
T: Cliffs Of Moher, The
R: jig
M: 6/8
K: Adorian
|:~a3 bag|e/g/af ged|c2A BAG|EFG A2e|
~a3 bag|e/g/af ged|c2A BAG|1 EFG A2e:|2 EFG A2d||
|:~e3 dBA|e/f/ge dBA|G2B dBA|G2B dBd|
[1 ege dBA|ege dBA|G2B dBG|EFG A2d:|
[2 ~e3 dee|cee Bee|EFG BAG|EDB, A,2e||

